X:14
T:Hornpipe. RDO.14
M:4/4
L:1/8
Q:1/2=90
S:Robert D. Owen MS,Indiana,1826.
R:.Hornpipe
O:Indiana,USA
A:New Harmony
Z:vmp.Chris Partington
K:D
A2|d>cded2de|f>efgf2fe|dAfd gfed|cdef dcBA|!
d>cded2de|f>efgf2fe|dAfd gedc|d2f2d2:|!
|:fg|afafd2df|(ed)cBA2AG|FAGB Adce|dcde (de)fg|!
afafd2df|edcBA2AG|FAGB Adce|d2f2d2:|

